X:1
T:We Shall Reap By and By
T:We Shall Reap By and By
T:Alonzo Judson Abbey
T:Frances J. (Fanny) Crosby, 1873
T:Public Domain Courtesy of the Cyber Hymnal™
T:Public Domain Courtesy of the Cyber Hymnal™
C:Alonzo Judson Abbey
Z:Public Domain
Z:Courtesy of the Cyber Hymnal™
%%score ( 1 2 ) ( 3 4 )
L:1/8
Q:1/4=94
M:4/4
K:Eb
V:1 treble 
V:2 treble 
V:3 bass 
V:4 bass 
V:1
 [GB] | [GB]2 [^F=A][GB] [EG]2 E[EG] | [DF]2 [DF]>[EG] [DF]3 [EG] | [FA]2 [FA][Bd] [Ac]2 [GB][FA] | %4
w: 1.~O|ne- ver be wea- ry, with|vi- gor pur- sue The|work which the Mas- ter has|
w: 2.~O|ne- ver be wea- ry, but|work with a will, Our|Fa- ther will sure- ly His|
w: 3.~O|ne- ver be wea- ry, thro’|tri- al and care, Be|faith- ful to du- ty and|
w: 4.~Re-|mem- ber His mer- cy, re-|mem- ber His love, Who|came, our Re- deem- er, from|
 ([EG][DF])[EG][FA] [GB]3 [GB] | [GB]2 [^F=A][GB] [EG]2 E[EG] | (FB)[DB][Fc] [Fd]3 [Fd] | %7
w: left * us to do. If,|pa- tient- ly toil- ing, we|trust * in the Lord, The|
w: prom- * ise ful- fill. From|seeds we have scat- tered in|sor- * row and tears, We’ll|
w: ear- * nest in prayer. No|la- bor for Je- sus was|ev- * er in vain, Go|
w: glo- * ry a- bove. Then|ne- ver be wea- ry, but|joy- * fully pur- sue The|
 [Ge]2 [Bd][Ac] ([Ac][GB])[EG]E | [EG]2 [EG][DF] !fermata!E2 ||"^Refrain" [GB][GB] | %10
w: har- vest will bring * us a|bless- èd re- ward.||
w: ga- ther bright sheaves * when the|har- vest ap- pears.||
w: work in His vine- * yard, and|wait for the rain.||
w: work which the Mas- * ter has|left us to do.||
 [GB]2 [^F=A][GB] ([_Ac][GB]) .[EG]2 | E2 E>[DF] [EG]4 | [DF]2 [DF][EG] [DF]2 [DB][FB] | %13
w: |||
w: |||
w: |||
w: |||
 F2 [F=A][Fc] [FB]4 | [GB]2 [^F=A][GB] ([_Ac][GB])[EG][GB] | %15
w: ||
w: ||
w: ||
w: ||
 [Ge]2 [Ge][Bd] !fermata![Ac]2 [ce][Ac] | [GB]2 [GB][Ac] [GB]2 E2 | [EG]2 [EG][DF] !fermata!E3 |] %18
w: |||
w: |||
w: |||
w: |||
V:2
 x | x6 E x | x8 | x8 | x8 | x6 E x | D2 x6 | x7 E | x4 E2 || x2 | x8 | E2 E3/2 x9/2 | x8 | x8 | %14
 x8 | x8 | x6 E2 | x4 E3 |] %18
V:3
 [E,E] | [E,E]2 [E,E][E,E] [E,B,]2 [E,G,][E,B,] | [B,,B,]2 [B,,B,]>[B,,B,] [B,,B,]3 [B,,B,] | %3
w: ~|~ ~ ~ ~ ~ ~|~ ~ ~ ~ ~|
 [B,,B,]2 [B,,B,][B,,B,] [B,,B,]2 [B,,B,][B,,B,] | [E,B,]2 [E,B,][E,B,] [E,B,]3 [E,E] | %5
w: ~ ~ ~ ~ ~ ~|~ ~ ~ ~ ~|
 [E,E]2 [E,E][E,E] [E,B,]2 [E,G,][E,B,] | [F,B,]2 [F,B,][F,=A,] B,3 [B,,B,] | %7
w: ~ ~ ~ ~ ~ ~|~ ~ ~ ~ ~|
 [E,B,]2 [E,E][E,E] [E,E]2 [E,B,][E,G,] | [B,,B,]2 [B,,B,][B,,A,] [E,G,]2 || [E,E][E,E] | %10
w: ~ ~ ~ ~ ~ ~|~ ~ ~ ~|We shall|
 [E,E]2 [E,E][E,E] [E,E]2 .[E,E]2 | [C,G,]2 [C,G,]>[B,,B,] [E,B,]4 | %12
w: reap if we faint not,|reap by and by,|
 [B,,B,]2 [B,,B,][B,,B,] [B,,B,]2 [B,,B,][B,,D] | [F,D]2 [F,E][F,E] [B,,D]4 | %14
w: Trea- sures im- mor- tal that|ne- ver de- cay,|
 [E,E]2 [E,E][E,E] [E,E]2 [E,B,][E,B,] | [E,B,]2 [E,B,][G,E] [A,E]2 [A,E][A,E] | %16
w: Crowns of re- joic- ing that|fade not a- way, We shall|
 [E,E]2 [E,E][E,E] [E,E]2 [G,B,]2 | B,2 [B,,B,][B,,B,] [E,G,]3 |] %18
w: reap if we faint not,|reap by and by.|
V:4
 x | x8 | x8 | x8 | x8 | x8 | x4 B,3 x | x8 | x6 || x2 | x8 | x8 | x8 | x8 | x8 | x8 | x8 | %17
 B,2 x5 |] %18

